X:4009
T:Market Chorus in Masaniella,The. CJF.183
O:england
M:2/4
L:1/16
Q:100
S: C.J.Fox MS, 1829/33, Beverley,E.Yorks.
R:Air
A:East Yorkshire
B:Kidson Coll.Mitchell Lib.M1805
N:None of the Triplets are marked with a figure 3 in the MS. The two
N:latter sections are like "Davy, Davy Knick-knack". - PJH.
K:D
A2"$"|A2f2 f2ef|e2ce d2cd|c2B2 B2cd|(f2e2).A2.A2|
A2f2 f2ef|e2fe d2c2|
(3B^AB (3gfe (3dcB (3ABc| (3dcd (3f^ef d4"for"||A2|A4d2f2|A4d2f2|agfg c
ded|agfg cded|
A4d2f2|A4d2f2|agfg egfe|d2f2d2"$ for"||
D2|D4GABG|D4GABG|d=cBc ^GABA|
d=cBc ^GABA|D4G2B2|D4GAB=c|d=cBc AcBA|G2B2G2||


